X:343
T: Vergebliche Warnung (80a), S. 218
N: T0232
O: Luxemburg
S: Singendes Volk, Esch-Alzette 1937 posth.]
N: Rosport, fff Maria Schiltz, 8.3.1934
R: Liebeslieder]
M: 2/4
L: 1/8
K: G
D | GGGG | GABG | AAAA | A2z
D | AAAA | ABcA | BBBB | B2z2 |
d3c | Bddd | d2zd | dded | dcc
B | AABd | d2cB | B2z

@@@ Tune index: 8397
